def C(d) = Color(0,d,0.1,1)
axiom = FF(0.9,0,0.9)
FF(l,d,k) ->
     C(d)         FF(l/3, d, k/4)         +(60)
     C(d + k/4)   FF(l/3, d + k/4, k/4)   -(120)
     C(d + k/2)   FF(l/3, d + k/2, k/4)   +(60)
     C(d + 3/4*k) FF(l/3, d + 3/4*k, k/4)
C(d) -> Color(0,d,0.1,1)
FF(l,d,k) -> F(l)